packages/icons/svg/Outline/stop-circle.svg

<svg fill="none" height="24" viewBox="0 0 24 24" width="24" xmlns="http://www.w3.org/2000/svg"><path clip-rule="evenodd" d="m10 14.0001h4v-4h-4zm4.75-6.0001h-5.5c-.689 0-1.25.561-1.25 1.25v5.5c0 .689.561 1.25 1.25 1.25h5.5c.689 0 1.25-.561 1.25-1.25v-5.5c0-.689-.561-1.25-1.25-1.25zm-2.75 12.0001c-4.41098 0-7.99998-3.589-7.99998-8 0-4.41104 3.589-8.00003 7.99998-8.00003 4.411 0 8 3.58899 8 8.00003 0 4.411-3.589 8-8 8zm0-18.0001c-5.514 0-10 4.486-10 10s4.486 10 10 10 10-4.486 10-10-4.486-10-10-10z" fill="#6b7280" fill-rule="evenodd"/></svg>

<svg width="24" height="24" viewBox="0 0 24 24" fill="none" xmlns="http://www.w3.org/2000/svg">
<g id="Icon/Outline/stop-circle">
<path id="Mask" fill-rule="evenodd" clip-rule="evenodd" d="M10 14H14V10H10V14ZM14.75 8H9.25C8.561 8 8 8.561 8 9.25V14.75C8 15.439 8.561 16 9.25 16H14.75C15.439 16 16 15.439 16 14.75V9.25C16 8.561 15.439 8 14.75 8ZM12 20C7.589 20 4 16.411 4 12C4 7.589 7.589 4 12 4C16.411 4 20 7.589 20 12C20 16.411 16.411 20 12 20ZM12 2C6.486 2 2 6.486 2 12C2 17.514 6.486 22 12 22C17.514 22 22 17.514 22 12C22 6.486 17.514 2 12 2Z" fill="#000000"/>
</g>
</svg>
